packages/assets/static/images/icons/escalator-up.svg

<svg width="24" height="24" viewBox="0 0 24 24" xmlns="http://www.w3.org/2000/svg">
<path d="M21.0005 3.75H15.7505C15.6469 3.74993 15.5445 3.77131 15.4496 3.81277C15.3548 3.85424 15.2695 3.9149 15.1992 3.99094L6.42236 13.5H3.00049C2.60266 13.5 2.22113 13.658 1.93983 13.9393C1.65852 14.2206 1.50049 14.6022 1.50049 15V18.75C1.50049 19.1478 1.65852 19.5294 1.93983 19.8107C2.22113 20.092 2.60266 20.25 3.00049 20.25H8.25049C8.35403 20.2501 8.45646 20.2287 8.55133 20.1872C8.6462 20.1458 8.73146 20.0851 8.80174 20.0091L17.5786 10.5H21.0005C21.3983 10.5 21.7798 10.342 22.0611 10.0607C22.3425 9.77936 22.5005 9.39782 22.5005 9V5.25C22.5005 4.85218 22.3425 4.47064 22.0611 4.18934C21.7798 3.90804 21.3983 3.75 21.0005 3.75ZM21.0005 9H17.2505C17.1469 8.99993 17.0445 9.02131 16.9496 9.06277C16.8548 9.10424 16.7695 9.1649 16.6992 9.24094L7.92236 18.75H3.00049V15H6.75049C6.85403 15.0001 6.95646 14.9787 7.05133 14.9372C7.1462 14.8958 7.23146 14.8351 7.30174 14.7591L16.0786 5.25H21.0005V9ZM21.5311 15.9694C21.6008 16.0391 21.6561 16.1218 21.6938 16.2128C21.7315 16.3039 21.7509 16.4015 21.7509 16.5C21.7509 16.5985 21.7315 16.6961 21.6938 16.7872C21.6561 16.8782 21.6008 16.9609 21.5311 17.0306C21.4614 17.1003 21.3787 17.1556 21.2877 17.1933C21.1966 17.231 21.099 17.2504 21.0005 17.2504C20.9019 17.2504 20.8044 17.231 20.7133 17.1933C20.6223 17.1556 20.5395 17.1003 20.4699 17.0306L19.5005 16.0603V19.5C19.5005 19.6989 19.4215 19.8897 19.2808 20.0303C19.1402 20.171 18.9494 20.25 18.7505 20.25C18.5516 20.25 18.3608 20.171 18.2202 20.0303C18.0795 19.8897 18.0005 19.6989 18.0005 19.5V16.0603L17.0311 17.0306C16.8904 17.1714 16.6995 17.2504 16.5005 17.2504C16.3015 17.2504 16.1106 17.1714 15.9699 17.0306C15.8291 16.8899 15.7501 16.699 15.7501 16.5C15.7501 16.301 15.8291 16.1101 15.9699 15.9694L18.2199 13.7194C18.2895 13.6496 18.3722 13.5943 18.4633 13.5566C18.5543 13.5188 18.6519 13.4994 18.7505 13.4994C18.8491 13.4994 18.9466 13.5188 19.0377 13.5566C19.1287 13.5943 19.2115 13.6496 19.2811 13.7194L21.5311 15.9694Z"/>
</svg>

<svg viewBox="0 0 24 24" xmlns="http://www.w3.org/2000/svg" aria-hidden="true" fill="currentColor"><path d="M21 3.75h-5.25a.75.75 0 0 0-.55.24L6.421 13.5H3A1.5 1.5 0 0 0 1.5 15v3.75a1.5 1.5 0 0 0 1.5 1.5h5.25a.75.75 0 0 0 .552-.24l8.777-9.51H21A1.5 1.5 0 0 0 22.5 9V5.25a1.5 1.5 0 0 0-1.5-1.5M21 9h-3.75a.75.75 0 0 0-.55.24l-8.778 9.51H3V15h3.75a.75.75 0 0 0 .552-.24l8.777-9.51H21zm.531 6.97a.75.75 0 1 1-1.061 1.06l-.97-.97v3.44a.75.75 0 1 1-1.5 0v-3.44l-.969.97a.75.75 0 1 1-1.061-1.06l2.25-2.25a.747.747 0 0 1 1.061 0z"/></svg>
